src/assets/img/Star.svg

<svg width="24" height="23" viewBox="0 0 24 23" fill="none" xmlns="http://www.w3.org/2000/svg">
<path d="M14.2197 8.79199L14.332 9.1377H22.2373L16.1357 13.5713L15.8418 13.7842L15.9541 14.1299L18.2842 21.3027L12.1826 16.8701L11.8887 16.6562L11.5947 16.8701L5.49219 21.3027L7.82324 14.1299L7.93555 13.7842L7.6416 13.5713L1.54004 9.1377H9.44531L9.55762 8.79199L11.8887 1.61719L14.2197 8.79199Z" stroke="#EFEEEA"/>
</svg>

<svg xmlns="http://www.w3.org/2000/svg" width="24" height="23" fill="none" viewBox="0 0 24 23"><path stroke="#efeeea" d="m14.22 8.792.112.346h7.905l-6.101 4.433-.294.213.112.346 2.33 7.173-6.101-4.433-.294-.214-.294.214-6.103 4.433 2.331-7.173.113-.346-.294-.213L1.54 9.138h7.905l.113-.346 2.33-7.175z"/></svg>
